icons/modern/plunger.svg

<svg width="32" height="32" viewBox="0 0 32 32" fill="none" xmlns="http://www.w3.org/2000/svg">
<path d="M26.0669 2.64842C26.8953 1.82 28.2385 1.81999 29.0669 2.64842C29.8953 3.47684 29.8953 4.81998 29.0669 5.6484L13.2341 21.4812L10.2341 18.4812L26.0669 2.64842Z" fill="url(#paint0_linear_18_25839)"/>
<path d="M26.0669 2.64842C26.8953 1.82 28.2385 1.81999 29.0669 2.64842C29.8953 3.47684 29.8953 4.81998 29.0669 5.6484L13.2341 21.4812L10.2341 18.4812L26.0669 2.64842Z" fill="url(#paint1_linear_18_25839)"/>
<path d="M26.0669 2.64842C26.8953 1.82 28.2385 1.81999 29.0669 2.64842C29.8953 3.47684 29.8953 4.81998 29.0669 5.6484L13.2341 21.4812L10.2341 18.4812L26.0669 2.64842Z" fill="url(#paint2_linear_18_25839)"/>
<path d="M26.0669 2.64842C26.8953 1.82 28.2385 1.81999 29.0669 2.64842C29.8953 3.47684 29.8953 4.81998 29.0669 5.6484L13.2341 21.4812L10.2341 18.4812L26.0669 2.64842Z" fill="url(#paint3_radial_18_25839)"/>
<g filter="url(#filter0_i_18_25839)">
<path d="M16.6528 18.0625L13.2341 21.4812L10.2341 18.4812L13.6528 15.0625L16.6528 18.0625Z" fill="url(#paint4_linear_18_25839)"/>
</g>
<path d="M7.27171 16.7405C8.63854 15.3736 10.8546 15.3736 12.2215 16.7405L14.9748 19.4938C16.3417 20.8607 16.3417 23.0767 14.9748 24.4436L12.7075 26.7109L5.00439 19.0078L7.27171 16.7405Z" fill="url(#paint5_linear_18_25839)"/>
<path d="M7.27171 16.7405C8.63854 15.3736 10.8546 15.3736 12.2215 16.7405L14.9748 19.4938C16.3417 20.8607 16.3417 23.0767 14.9748 24.4436L12.7075 26.7109L5.00439 19.0078L7.27171 16.7405Z" fill="url(#paint6_linear_18_25839)"/>
<path d="M7.27171 16.7405C8.63854 15.3736 10.8546 15.3736 12.2215 16.7405L14.9748 19.4938C16.3417 20.8607 16.3417 23.0767 14.9748 24.4436L12.7075 26.7109L5.00439 19.0078L7.27171 16.7405Z" fill="url(#paint7_linear_18_25839)"/>
<path d="M7.27171 16.7405C8.63854 15.3736 10.8546 15.3736 12.2215 16.7405L14.9748 19.4938C16.3417 20.8607 16.3417 23.0767 14.9748 24.4436L12.7075 26.7109L5.00439 19.0078L7.27171 16.7405Z" fill="url(#paint8_radial_18_25839)"/>
<path d="M7.27171 16.7405C8.63854 15.3736 10.8546 15.3736 12.2215 16.7405L14.9748 19.4938C16.3417 20.8607 16.3417 23.0767 14.9748 24.4436L12.7075 26.7109L5.00439 19.0078L7.27171 16.7405Z" fill="url(#paint9_linear_18_25839)"/>
<path d="M2.35988 18.5117C3.19046 17.6811 4.53711 17.6811 5.36769 18.5117L13.2036 26.3477C14.0342 27.1782 14.0342 28.5249 13.2036 29.3555C12.373 30.1861 11.0264 30.1861 10.1958 29.3555L2.35988 21.5195C1.52929 20.689 1.52929 19.3423 2.35988 18.5117Z" fill="url(#paint10_linear_18_25839)"/>
<path d="M2.35988 18.5117C3.19046 17.6811 4.53711 17.6811 5.36769 18.5117L13.2036 26.3477C14.0342 27.1782 14.0342 28.5249 13.2036 29.3555C12.373 30.1861 11.0264 30.1861 10.1958 29.3555L2.35988 21.5195C1.52929 20.689 1.52929 19.3423 2.35988 18.5117Z" fill="url(#paint11_linear_18_25839)"/>
<path d="M2.35988 18.5117C3.19046 17.6811 4.53711 17.6811 5.36769 18.5117L13.2036 26.3477C14.0342 27.1782 14.0342 28.5249 13.2036 29.3555C12.373 30.1861 11.0264 30.1861 10.1958 29.3555L2.35988 21.5195C1.52929 20.689 1.52929 19.3423 2.35988 18.5117Z" fill="url(#paint12_radial_18_25839)"/>
<path d="M2.35988 18.5117C3.19046 17.6811 4.53711 17.6811 5.36769 18.5117L13.2036 26.3477C14.0342 27.1782 14.0342 28.5249 13.2036 29.3555C12.373 30.1861 11.0264 30.1861 10.1958 29.3555L2.35988 21.5195C1.52929 20.689 1.52929 19.3423 2.35988 18.5117Z" fill="url(#paint13_radial_18_25839)"/>
<defs>
<filter id="filter0_i_18_25839" x="10.2341" y="15.0625" width="6.4187" height="6.4187" filterUnits="userSpaceOnUse" color-interpolation-filters="sRGB">
<feFlood flood-opacity="0" result="BackgroundImageFix"/>
<feBlend mode="normal" in="SourceGraphic" in2="BackgroundImageFix" result="shape"/>
<feColorMatrix in="SourceAlpha" type="matrix" values="0 0 0 0 0 0 0 0 0 0 0 0 0 0 0 0 0 0 127 0" result="hardAlpha"/>
<feOffset/>
<feGaussianBlur stdDeviation="0.5"/>
<feComposite in2="hardAlpha" operator="arithmetic" k2="-1" k3="1"/>
<feColorMatrix type="matrix" values="0 0 0 0 0.811765 0 0 0 0 0.27451 0 0 0 0 0.317647 0 0 0 1 0"/>
<feBlend mode="normal" in2="shape" result="effect1_innerShadow_18_25839"/>
</filter>
<linearGradient id="paint0_linear_18_25839" x1="23.0161" y1="11.7541" x2="19.9612" y2="8.8783" gradientUnits="userSpaceOnUse">
<stop stop-color="#FFBDB7"/>
<stop offset="1" stop-color="#FAAB85"/>
</linearGradient>
<linearGradient id="paint1_linear_18_25839" x1="18.3314" y1="9.94474" x2="19.7406" y2="11.3159" gradientUnits="userSpaceOnUse">
<stop stop-color="#D9996E"/>
<stop offset="1" stop-color="#F8AB85" stop-opacity="0"/>
</linearGradient>
<linearGradient id="paint2_linear_18_25839" x1="22.3686" y1="12.687" x2="21.5688" y2="11.7541" gradientUnits="userSpaceOnUse">
<stop stop-color="#FEADB0"/>
<stop offset="1" stop-color="#FEADB0" stop-opacity="0"/>
</linearGradient>
<radialGradient id="paint3_radial_18_25839" cx="0" cy="0" r="1" gradientUnits="userSpaceOnUse" gradientTransform="translate(29.6882 3.12715) rotate(135) scale(3.80224 3.941)">
<stop offset="0.256276" stop-color="#FFE6AE"/>
<stop offset="1" stop-color="#FFC5A9" stop-opacity="0"/>
</radialGradient>
<linearGradient id="paint4_linear_18_25839" x1="15.2844" y1="16.4957" x2="13.2277" y2="18.2718" gradientUnits="userSpaceOnUse">
<stop stop-color="#F53581"/>
<stop offset="1" stop-color="#FF2E5C"/>
</linearGradient>
<linearGradient id="paint5_linear_18_25839" x1="13.5586" y1="18.0137" x2="8.70573" y2="22.9023" gradientUnits="userSpaceOnUse">
<stop stop-color="#FF448A"/>
<stop offset="1" stop-color="#E83F54"/>
</linearGradient>
<linearGradient id="paint6_linear_18_25839" x1="5.24449" y1="17.193" x2="7.81366" y2="19.7622" gradientUnits="userSpaceOnUse">
<stop offset="0.184315" stop-color="#D05A63"/>
<stop offset="1" stop-color="#F04164" stop-opacity="0"/>
</linearGradient>
<linearGradient id="paint7_linear_18_25839" x1="14.6291" y1="25.7212" x2="12.7736" y2="23.8657" gradientUnits="userSpaceOnUse">
<stop stop-color="#DF5088"/>
<stop offset="1" stop-color="#DF5088" stop-opacity="0"/>
</linearGradient>
<radialGradient id="paint8_radial_18_25839" cx="0" cy="0" r="1" gradientUnits="userSpaceOnUse" gradientTransform="translate(13.1661 19.7265) rotate(131.987) scale(2.40032 4.07657)">
<stop offset="0.17348" stop-color="#FF6CAA"/>
<stop offset="1" stop-color="#FF6CAA" stop-opacity="0"/>
</radialGradient>
<linearGradient id="paint9_linear_18_25839" x1="5.90283" y1="19.9687" x2="6.82471" y2="19.3125" gradientUnits="userSpaceOnUse">
<stop offset="0.107382" stop-color="#C24B55"/>
<stop offset="1" stop-color="#C24B55" stop-opacity="0"/>
</linearGradient>
<linearGradient id="paint10_linear_18_25839" x1="9.09824" y1="22.2244" x2="6.0652" y2="25.5072" gradientUnits="userSpaceOnUse">
<stop stop-color="#FF3E71"/>
<stop offset="1" stop-color="#E5344C"/>
</linearGradient>
<linearGradient id="paint11_linear_18_25839" x1="5.99383" y1="25.5786" x2="7.78174" y2="23.5803" gradientUnits="userSpaceOnUse">
<stop offset="0.0625" stop-color="#B12F46"/>
<stop offset="1" stop-color="#DF2B4C" stop-opacity="0"/>
</linearGradient>
<radialGradient id="paint12_radial_18_25839" cx="0" cy="0" r="1" gradientUnits="userSpaceOnUse" gradientTransform="translate(12.4524 31.1094) rotate(-88.8767) scale(3.64035 4.53086)">
<stop offset="0.163912" stop-color="#BF3662"/>
<stop offset="1" stop-color="#BF3662" stop-opacity="0"/>
</radialGradient>
<radialGradient id="paint13_radial_18_25839" cx="0" cy="0" r="1" gradientUnits="userSpaceOnUse" gradientTransform="translate(10.6326 24.9363) rotate(133.919) scale(1.33751 5.50562)">
<stop offset="0.0406155" stop-color="#FF7094"/>
<stop offset="1" stop-color="#FF7094" stop-opacity="0"/>
</radialGradient>
</defs>
</svg>

<svg width="32" height="32" fill="none" xmlns="http://www.w3.org/2000/svg"><path d="M26.067 2.648a2.121 2.121 0 0 1 3 3L13.234 21.481l-3-3L26.067 2.648Z" fill="url(#a)"/><path d="M26.067 2.648a2.121 2.121 0 0 1 3 3L13.234 21.481l-3-3L26.067 2.648Z" fill="url(#b)"/><path d="M26.067 2.648a2.121 2.121 0 0 1 3 3L13.234 21.481l-3-3L26.067 2.648Z" fill="url(#c)"/><path d="M26.067 2.648a2.121 2.121 0 0 1 3 3L13.234 21.481l-3-3L26.067 2.648Z" fill="url(#d)"/><g filter="url(#e)"><path d="m16.653 18.063-3.419 3.418-3-3 3.419-3.419 3 3Z" fill="url(#f)"/></g><path d="M7.272 16.74a3.5 3.5 0 0 1 4.95 0l2.753 2.754a3.5 3.5 0 0 1 0 4.95l-2.268 2.267-7.703-7.703 2.268-2.267Z" fill="url(#g)"/><path d="M7.272 16.74a3.5 3.5 0 0 1 4.95 0l2.753 2.754a3.5 3.5 0 0 1 0 4.95l-2.268 2.267-7.703-7.703 2.268-2.267Z" fill="url(#h)"/><path d="M7.272 16.74a3.5 3.5 0 0 1 4.95 0l2.753 2.754a3.5 3.5 0 0 1 0 4.95l-2.268 2.267-7.703-7.703 2.268-2.267Z" fill="url(#i)"/><path d="M7.272 16.74a3.5 3.5 0 0 1 4.95 0l2.753 2.754a3.5 3.5 0 0 1 0 4.95l-2.268 2.267-7.703-7.703 2.268-2.267Z" fill="url(#j)"/><path d="M7.272 16.74a3.5 3.5 0 0 1 4.95 0l2.753 2.754a3.5 3.5 0 0 1 0 4.95l-2.268 2.267-7.703-7.703 2.268-2.267Z" fill="url(#k)"/><path d="M2.36 18.512c.83-.83 2.177-.83 3.008 0l7.836 7.836a2.127 2.127 0 1 1-3.008 3.008L2.36 21.518a2.127 2.127 0 0 1 0-3.007Z" fill="url(#l)"/><path d="M2.36 18.512c.83-.83 2.177-.83 3.008 0l7.836 7.836a2.127 2.127 0 1 1-3.008 3.008L2.36 21.518a2.127 2.127 0 0 1 0-3.007Z" fill="url(#m)"/><path d="M2.36 18.512c.83-.83 2.177-.83 3.008 0l7.836 7.836a2.127 2.127 0 1 1-3.008 3.008L2.36 21.518a2.127 2.127 0 0 1 0-3.007Z" fill="url(#n)"/><path d="M2.36 18.512c.83-.83 2.177-.83 3.008 0l7.836 7.836a2.127 2.127 0 1 1-3.008 3.008L2.36 21.518a2.127 2.127 0 0 1 0-3.007Z" fill="url(#o)"/><defs><linearGradient id="a" x1="23.016" y1="11.754" x2="19.961" y2="8.878" gradientUnits="userSpaceOnUse"><stop stop-color="#FFBDB7"/><stop offset="1" stop-color="#FAAB85"/></linearGradient><linearGradient id="b" x1="18.331" y1="9.945" x2="19.741" y2="11.316" gradientUnits="userSpaceOnUse"><stop stop-color="#D9996E"/><stop offset="1" stop-color="#F8AB85" stop-opacity="0"/></linearGradient><linearGradient id="c" x1="22.369" y1="12.687" x2="21.569" y2="11.754" gradientUnits="userSpaceOnUse"><stop stop-color="#FEADB0"/><stop offset="1" stop-color="#FEADB0" stop-opacity="0"/></linearGradient><linearGradient id="f" x1="15.284" y1="16.496" x2="13.228" y2="18.272" gradientUnits="userSpaceOnUse"><stop stop-color="#F53581"/><stop offset="1" stop-color="#FF2E5C"/></linearGradient><linearGradient id="g" x1="13.559" y1="18.014" x2="8.706" y2="22.902" gradientUnits="userSpaceOnUse"><stop stop-color="#FF448A"/><stop offset="1" stop-color="#E83F54"/></linearGradient><linearGradient id="h" x1="5.244" y1="17.193" x2="7.814" y2="19.762" gradientUnits="userSpaceOnUse"><stop offset=".184" stop-color="#D05A63"/><stop offset="1" stop-color="#F04164" stop-opacity="0"/></linearGradient><linearGradient id="i" x1="14.629" y1="25.721" x2="12.774" y2="23.866" gradientUnits="userSpaceOnUse"><stop stop-color="#DF5088"/><stop offset="1" stop-color="#DF5088" stop-opacity="0"/></linearGradient><linearGradient id="k" x1="5.903" y1="19.969" x2="6.825" y2="19.313" gradientUnits="userSpaceOnUse"><stop offset=".107" stop-color="#C24B55"/><stop offset="1" stop-color="#C24B55" stop-opacity="0"/></linearGradient><linearGradient id="l" x1="9.098" y1="22.224" x2="6.065" y2="25.507" gradientUnits="userSpaceOnUse"><stop stop-color="#FF3E71"/><stop offset="1" stop-color="#E5344C"/></linearGradient><linearGradient id="m" x1="5.994" y1="25.579" x2="7.782" y2="23.58" gradientUnits="userSpaceOnUse"><stop offset=".063" stop-color="#B12F46"/><stop offset="1" stop-color="#DF2B4C" stop-opacity="0"/></linearGradient><radialGradient id="d" cx="0" cy="0" r="1" gradientUnits="userSpaceOnUse" gradientTransform="rotate(135 14.196 7.712) scale(3.80224 3.941)"><stop offset=".256" stop-color="#FFE6AE"/><stop offset="1" stop-color="#FFC5A9" stop-opacity="0"/></radialGradient><radialGradient id="j" cx="0" cy="0" r="1" gradientUnits="userSpaceOnUse" gradientTransform="rotate(131.987 2.19 12.795) scale(2.40032 4.07657)"><stop offset=".173" stop-color="#FF6CAA"/><stop offset="1" stop-color="#FF6CAA" stop-opacity="0"/></radialGradient><radialGradient id="n" cx="0" cy="0" r="1" gradientUnits="userSpaceOnUse" gradientTransform="matrix(.07137 -3.63965 4.52999 .08882 12.452 31.11)"><stop offset=".164" stop-color="#BF3662"/><stop offset="1" stop-color="#BF3662" stop-opacity="0"/></radialGradient><radialGradient id="o" cx="0" cy="0" r="1" gradientUnits="userSpaceOnUse" gradientTransform="rotate(133.919 .013 14.73) scale(1.33751 5.50562)"><stop offset=".041" stop-color="#FF7094"/><stop offset="1" stop-color="#FF7094" stop-opacity="0"/></radialGradient><filter id="e" x="10.234" y="15.063" width="6.419" height="6.419" filterUnits="userSpaceOnUse" color-interpolation-filters="sRGB"><feFlood flood-opacity="0" result="BackgroundImageFix"/><feBlend in="SourceGraphic" in2="BackgroundImageFix" result="shape"/><feColorMatrix in="SourceAlpha" values="0 0 0 0 0 0 0 0 0 0 0 0 0 0 0 0 0 0 127 0" result="hardAlpha"/><feOffset/><feGaussianBlur stdDeviation=".5"/><feComposite in2="hardAlpha" operator="arithmetic" k2="-1" k3="1"/><feColorMatrix values="0 0 0 0 0.811765 0 0 0 0 0.27451 0 0 0 0 0.317647 0 0 0 1 0"/><feBlend in2="shape" result="effect1_innerShadow_18_25839"/></filter></defs></svg>
